!!!!SEGMENT: pl-wtm--a-23-711_boczkowski-jerzy--pamietasz.krn
!!!cenid: 19xx:34
!!!COM: Boczkowski, Jerzy
!!!COM-rismID: pe50047498
!!!CDT: 1882-1953
!!!CNT: Polish
!!!OTL: Pamiętasz?
!!!PDT:
!!!AGN: Secular
!!!YEC: Copyright 2022 Narodowy Instytut Fryderyka Chopina (https://polishscores.org)
!!!YEM: License CC-BY-4.0 (https://creativecommons.org/licenses/by/4.0)
!!!SMS-siglum: PL-Wtm
!!!SMS-shelfmark: A.23.711
!!!SMS-variant:
!!!SMS-altvar:
!!!SMS-shelfwork: W
!!!NIFC-rismSourceID: 1001189516
!!!NIFC-rismChildID: 1001189516
!!!NIFC-islandoraID: pl-wtm:95048
!!!URL-pdf-islandora: https://repozytorium.nifc.pl/islandora/object/pl-wtm%3A95048/datastream/PDF/view
!!!URL-scan: https://polish.musicsources.pl/pl/lokalizacje/galeria/druki-muzyczne/19860/2 @EN{Scan on Polish Music Sources Website} @PL{Skany w portalu Dziedzictwo Muzyki Polskiej w otwartym dostępie}
!!!IIIF:
!!!ONB-nifc:
!!!AIN: 1 piano 1 vox
!!!key: G
**kern	**kern	**dynam	**kern	**text	**text	**dynam
*part2	*part2	*part2	*part1	*part1	*part1	*part1
*staff3	*staff2	*	*staff1	*staff1	*staff1	*
*I"Piano.	*I"Piano.	*	*I"[Voce]	*	*	*
*I'[pf]	*I'[pf]	*	*I'[V]	*	*	*
*ICklav	*ICklav	*	*ICvox	*	*	*
*Ipiano	*Ipiano	*	*Ivox	*	*	*
*>[A,A1,A,A2,B,A,A1,A,A2,C,C1,C,C2,A]	*>[A,A1,A,A2,B,A,A1,A,A2,C,C1,C,C2,A]	*>[A,A1,A,A2,B,A,A1,A,A2,C,C1,C,C2,A]	*>[A,A1,A,A2,B,A,A1,A,A2,C,C1,C,C2,A]	*>[A,A1,A,A2,B,A,A1,A,A2,C,C1,C,C2,A]	*>[A,A1,A,A2,B,A,A1,A,A2,C,C1,C,C2,A]	*>[A,A1,A,A2,B,A,A1,A,A2,C,C1,C,C2,A]
*>A	*>A	*>A	*>A	*>A	*>A	*>A
*clefG2	*clefG2	*	*clefG2	*	*	*
*k[f#]	*k[f#]	*	*k[f#]	*	*	*
*G:	*G:	*	*G:	*	*	*
*M3/4	*M3/4	*	*M3/4	*	*	*
*	*8va	*	*	*	*	*
=1	=1	=1	=1	=1	=1	=1
!	!LO:TX:a:i:t=vivace	!	!	!	!	!
4gg\	4ggg\	p	2.ryy	.	.	.
4ff#\	4fff#\	.	.	.	.	.
4dd\	4ddd\	.	.	.	.	.
=2	=2	=2	=2	=2	=2	=2
2ee\	2eee\	.	2.ryy	.	.	.
4b\	4bb\	.	.	.	.	.
=3	=3	=3	=3	=3	=3	=3
8qqa/L	8qqaa/L	.	.	.	.	.
8qqb/J	8qqbb/J	.	.	.	.	.
4.a/	4.aa/	.	2.ryy	.	.	.
8b/L	8bb/L	.	.	.	.	.
8a/	8aa/	.	.	.	.	.
8e/J	8ee/J	.	.	.	.	.
=4	=4	=4	=4	=4	=4	=4
2.a/	2.aa/	.	2.ryy	.	.	.
*	*X8va	*	*	*	*	*
=5	=5	=5	=5	=5	=5	=5
4g/	4gg\	.	2.ryy	.	.	.
4d/	4dd\	.	.	.	.	.
4e/	4ee\	.	.	.	.	.
*clefF4	*	*	*	*	*	*
!!LO:LB:g=original	!	!	!	!	!	!
=6	=6	=6	=6	=6	=6	=6
4B\	4b\	.	2.r	.	.	.
4d\	4dd\	.	.	.	.	.
8qd#X/	8qdd#X/	.	.	.	.	.
4e\	4ee\	.	.	.	.	.
=7	=7	=7	=7	=7	=7	=7
!	!LO:TX:b:i:t=rallentando	!	!	!	!	!
8qe/	8qee/	.	.	.	.	.
4B\	4b\	.	2.r	.	.	.
8A\L	8a/L	.	.	.	.	.
8E-X\J	8e-X/J	.	.	.	.	.
8A\L	8a/L	.	.	.	.	.
8E-\J	8e-/J	.	.	.	.	.
=8	=8	=8	=8	=8	=8	=8
4DD/ 4D	2.c;:/ 2.d: 2.f#: 2.a:	.	2.r	.	.	.
2D\ 2F# 2A 2c	.	.	.	.	.	.
=9!|:	=9!|:	=9!|:	=9!|:	=9!|:	=9!|:	=9!|:
!	!	!	!LO:TX:a:i:t=Languido	!	!	!
!	!	!	!LO:TX:a:i:t=ritenuto	!	!	!LO:DY:a
4G\	4g\ 4gg	p	4g/	1. Pa-	2. Przy	mf
!	!LO:TX:b:i:t=ritenuto	!	!	!	!	!
4.F#\	4.f#\ 4.ff#	.	4.f#/	-mię-	u-	.
8D\	8d/ 8dd	.	8d/	-tasz	-stach	.
=10	=10	=10	=10	=10	=10	=10
*	*^	*	*^	*	*	*
!	!LO:TX:b:i:t=moderato	!	!	!LO:TX:a:i:t=moderato	!	!	!	!
4GGG/ 4GG	2.e\ 2.ee	4r	.	2.e/	2e/	ty	u-	.
4D\ 4G 4B	.	4g/ 4b	.	.	.	.	.	.
4r	.	4g/ 4b	.	.	4e/	.	-sta,	.
*	*v	*v	*	*	*	*	*	*
*	*	*	*v	*v	*	*	*
=11	=11	=11	=11	=11	=11	=11
4DDD/ 4DD	4B/ 4b	.	4B/	te	Pierś	.
4D\ 4G 4B	4.c/ 4.cc	.	4.c/	cud-	sza-	.
4r	.	.	.	.	.	.
.	8B/ 8b	.	8B/	-ną	-łem	.
!!LO:LB:g=original	!	!	!	!	!	!
=12	=12	=12	=12	=12	=12	=12
*	*^	*	*	*	*	*
4AAA/ 4AA	2.e\ 2.ee	4r	.	2.e/	noc,	drży,	.
4D\ 4F# 4c	.	4f#/ 4cc	.	.	.	.	.
4D\ 4F# 4c	.	4f#/ 4cc	.	.	.	.	.
*	*v	*v	*	*	*	*	*
=13	=13	=13	=13	=13	=13	=13
4DDD/ 4DD	4g\ 4gg	.	4g/	Mi-	Za-	.
4D\ 4F# 4c	4.f#\ 4.ff#	.	4.f#/	-ło-	-mglo-	.
4r	.	.	.	.	.	.
.	8d/ 8dd	.	8d/	-snych	-nych	.
=14	=14	=14	=14	=14	=14	=14
*	*^	*	*	*	*	*
4AAA/ 4AA	2.e\ 2.ee	4r	.	2e/	dre-	o-	.
4D\ 4F# 4c	.	4f#/ 4cc	.	.	.	.	.
4D\ 4F# 4c	.	4f#/ 4cc	.	4e/	-szczy	-czu	.
*	*v	*v	*	*	*	*	*
=15	=15	=15	=15	=15	=15	=15
!	!	!	!	!	!	!LO:HP:a
4DDD/ 4DD	4d/ 4dd	<	4d/	cza-	sre-	<
4D\ 4F# 4c	4a\ 4aa	.	4a/	-ro-	-brzy-	.
4r	4cc\ 4ccc	[	4cc\	-wną	-ste	[
=16	=16	=16	=16	=16	=16	=16
*	*^	*	*	*	*	*
4GGG/ 4GG	2ee\ 2eee	4r	.	2ee\	moc,	skry,	.
4D\ 4G 4B	.	4gg/ 4bb	.	.	.	.	.
4D\ 4G 4B	4dd\ 4ddd	4r	.	4dd\	.	.	.
*	*v	*v	*	*	*	*	*
!!LO:LB:g=original	!	!	!	!	!	!
=17	=17	=17	=17	=17	=17	=17
!	!LO:TX:b:i:t=animando	!	!LO:TX:a:i:t=animando	!	!	!LO:DY:a
4BBB/ 4BB	4b\ 4bb	sf	4b\	Słod-	Za-	sf
4G\ 4B 4d	4a\ 4aa	.	4a/	-kie	-pach	.
4G\ 4B 4d#X	4g\ 4gg	.	4g/	ma-	du-	.
=18	=18	=18	=18	=18	=18	=18
*	*^	*	*	*	*	*
4GGG#X/ 4GG#X	2.e\ 2.ee	4r	.	2e/	-rze-	-szą-	.
4E\ 4G#X 4d	.	4g#X/ 4b	.	.	.	.	.
4E\ 4G# 4d	.	4g#/ 4b	.	4e/	-nia,	-cy	.
*	*v	*v	*	*	*	*	*
=19	=19	=19	=19	=19	=19	=19
4EEE/ 4EE	4cc\ 4ccc	.	4cc\	nie-	jaś-	.
4E\ 4G#X 4d	4.b\ 4.bb	.	4.b\	-biań-	-mi-	.
4E\ 4G# 4d	.	.	.	.	.	.
.	8g#X\ 8gg#X	.	8g#X/	-skie	-nów,	.
=20	=20	=20	=20	=20	=20	=20
*	*^	*	*	*	*	*
4CC/ 4C	2b\ 2bb	4r	.	2b\	sny,	bzów,	.
4A\ 4c 4e	.	4cc/ 4ee	.	.	.	.	.
4A\ 4c 4e	4a\ 4aa	4r	.	4a/	.	.	.
*	*v	*v	*	*	*	*	*
=21	=21	=21	=21	=21	=21	=21
!	!	!	!LO:TX:a:i:t=ardente	!	!	!LO:DY:a
4AA\ 4A	4ff#\ 4fff#	f	4ff#\	Skar-	Czy	f
4c\ 4e 4a	4ff#\ 4fff#	.	4ff#\	-bie	ty-	.
4c\ 4e 4a	4ee\ 4eee	.	4ee\	mój	-pa–	.
!!LO:PB:g=original	!	!	!	!	!	!
=22	=22	=22	=22	=22	=22	=22
*>A1	*>A1	*>A1	*>A1	*>A1	*>A1	*>A1
*	*^	*	*	*	*	*
4DD/ 4D	2dd\ 2ddd	4r	.	4dd\	zło-	.	.
4D\ 4G 4B	.	4gg/ 4bb	.	4dd\	-ty,	.	.
4D\ 4G 4B	8a#X\L 8aa#X	4r	.	8a#X/	czy	.	.
.	8b\J 8bb	.	.	8b/	pa-	.	.
=23	=23	=23	=23	=23	=23	=23	=23
4DD/ 4D	2ee\ 2eee	4r	.	2ee\	-mię-	.	.
4D\ 4F# 4c	.	4ff#/ 4ccc	.	.	.	.	.
4D\ 4F# 4c	4cc\ 4ccc	4r	.	4cc\	-tasz	.	.
=24	=24	=24	=24	=24	=24	=24	=24
4BBB/ 4BB	2.dd\ 2.ddd	4r	.	2.dd\	ty,	.	.
4D\ 4G 4B	.	4gg/ 4bb	.	.	.	.	.
4D\ 4G 4B	.	4gg/ 4bb	.	.	.	.	.
*	*v	*v	*	*	*	*	*
=25	=25	=25	=25	=25	=25	=25
*	*8va	*	*	*	*	*
!	!	!	!LO:TX:a:i:t=dolce	!	!	!
!	!LO:TX:b:i:t=più lento	!	!LO:TX:a:i:t=più lento	!	!	!
4CC/ 4C	4aa\ 4aaa	.	4a\	Czy	.	.
4c\ 4e 4a	4gg\ 4ggg	.	4dd\	ty	.	.
4c\ 4e 4a	4ee/ 4eee	.	4cc\	pa-	.	.
*	*X8va	*	*	*	*	*
=26	=26	=26	=26	=26	=26	=26
*	*^	*	*	*	*	*
4BB\ 4B	2dd#X\ 2ddd#X	4r	.	2b\	-mię-	.	.
4B\ 4d#X 4f#	.	4ff#/ 4bb	.	.	.	.	.
4r	8b\L 8bb	4r	.	4b\	-tasz,	.	.
.	8b\J 8bb	.	.	.	.	.	.
*	*v	*v	*	*	*	*	*
=27	=27	=27	=27	=27	=27	=27
!	!	!	!LO:TX:a:i:t=ritardando	!	!	!
4B\ 4e 4g	4ee\ 4eee	.	4ee\	o	.	.
!	!LO:TX:b:i:t=ritardando	!	!	!	!	!
4r	4g\ 4gg	.	4g/	skar-	.	.
4r	4a\ 4aa	.	4a/	-bie	.	.
=28	=28	=28	=28	=28	=28	=28
4DD/ 4D	2c;:/ 2d: 2f#: 2b:	.	2b;\	mój!	.	.
2D\ 2F# 2A 2c	.	.	.	.	.	.
.	4a/	.	4a/	.	.	.
=29:|!	=29:|!	=29:|!	=29:|!	=29:|!	=29:|!	=29:|!
*>A2	*>A2	*>A2	*>A2	*>A2	*>A2	*>A2
*	*^	*	*	*	*	*
4DD/ 4D	4r	2dd\ 2ddd	.	4dd\	mię-	.	.
4D\ 4G 4B	4gg,/ 4bb	.	.	4dd,\	-tasz,	.	.
!	!	!	!	!LO:TX:a:Bi:t=Lento	!	!	!
4r	4r	8d#X\L 8dd#X	.	8d#X/	czy	.	.
.	.	8e\J 8ee	.	8e/	pa-	.	.
=30	=30	=30	=30	=30	=30	=30	=30
4DDD/ 4DD	4r	2b\ 2bb	.	2b\	-mię-	.	.
4D\ 4F# 4c	4cc/ 4ff#	.	.	.	.	.	.
4D\ 4F# 4c	4r	4f#\ 4ff#	.	4f#/	-tasz,	.	.
=31	=31	=31	=31	=31	=31	=31	=31
!	!LO:N:vis=2	!	!	!	!	!	!
4GGG/ 4GG	4r	2.g\ 2.gg	.	2.g/	mów.	.	.
2D\ 2G 2B	2b/ 2dd	.	.	.	.	.	.
*	*v	*v	*	*	*	*	*
=32||	=32||	=32||	=32||	=32||	=32||	=32||
*>B	*>B	*>B	*>B	*>B	*>B	*>B
!	!	!	!	!	!	!LO:DY:a
2.r	4g'~/	p	4g'~/	Z ócz	.	p
.	4a'~/	.	4a'~/	pły-	.	.
.	4a#X'~/	.	4a#X'~/	-ną	.	.
=33	=33	=33	=33	=33	=33	=33
*	*^	*	*	*	*	*
!	!	!	!	!LO:TX:a:i:t=dolce	!	!	!
4D#X\	(2.b/	4r	.	(2.b\	łzy	.	.
4A\ 4B	.	8f#\L	.	.	.	.	.
.	.	8g\	.	.	.	.	.
4A\ 4B	.	8f#\	.	.	.	.	.
.	.	8g\J	.	.	.	.	.
*	*v	*v	*	*	*	*	*
=34	=34	=34	=34	=34	=34	=34
4BB/	4f#/	.	4f#/	na	.	.
4A\ 4B	4g/	.	4g/	to	.	.
4A\ 4B	4a/	.	4a/	wspo-	.	.
=35	=35	=35	=35	=35	=35	=35
4EE/ 4E	2cc\	.	2cc\	-mnie-	.	.
4G\ 4B 4e	.	.	.	.	.	.
4G\ 4B 4e	4b\)	.	4b\)	-nie	.	.
!!LO:LB:g=original	!	!	!	!	!	!
=36	=36	=36	=36	=36	=36	=36
4G\	4b\	.	4b\	za	.	.
4B\ 4e	4b\	.	4b\	da-	.	.
4c\ 4e	4cc\	.	4cc\	-wną	.	.
=37	=37	=37	=37	=37	=37	=37
*	*^	*	*	*	*	*
4F#\	2.dd/	4r	.	(2dd\	złu-	.	.
4c\ 4d	.	8a\L	.	.	.	.	.
.	.	8b\	.	.	.	.	.
4c\ 4d	.	8a\	.	4a/)	-dą	.	.
.	.	8b\J	.	.	.	.	.
*	*v	*v	*	*	*	*	*
=38	=38	=38	=38	=38	=38	=38
4D\	4a/	.	4a/	ser-	.	.
4c\ 4d	4.ee\	.	4.ee\	-ce	.	.
4c\ 4d	.	.	.	.	.	.
.	8cc\	.	8cc\	się	.	.
=39	=39	=39	=39	=39	=39	=39
4G\	2.dd\	.	2.dd\	rwie!	.	.
4B\ 4d	.	.	.	.	.	.
4B\ 4d	.	.	.	.	.	.
=40	=40	=40	=40	=40	=40	=40
!	!	!	!	!	!	!LO:HP:a
4B\	(4b\	<	(4b\	O	.	<
4d\ 4g	4dd\	.	4dd\	ty,	.	.
4d\ 4g	4gg\	[	4gg\	mi-	.	[
=41	=41	=41	=41	=41	=41	=41
*	*^	*	*	*	*	*
!	!	!	!	!	!	!	!LO:HP:a
4BBB/ 4BB	4gg/	4r	>	4gg\	-nio-	.	>
2BB\ 2D#X 2F# 2A	2ff#/)	8b\L	]	2ff#\)	-ne	.	]
.	.	8cc\	.	.	.	.	.
.	.	8b\	.	.	.	.	.
.	.	8cc\J	.	.	.	.	.
*	*v	*v	*	*	*	*	*
!!LO:LB:g=original	!	!	!	!	!	!
=42	=42	=42	=42	=42	=42	=42
!	!	!	!	!	!	!LO:DY:a
!	!	!	!	!	!	!LO:HP:a
4DD#X/ 4D#X	4a/	p <	(4a/	zło-	.	p <
2F#\ 2A 2c 2e	4cc\	.	4cc\	-te	.	.
.	4ee\	[	4ee\	ma-	.	[
=43	=43	=43	=43	=43	=43	=43
*	*^	*	*	*	*	*
!	!	!	!	!	!	!	!LO:HP:a
4BB\ 4B	4ee/	4r	>	4ee\)	-rze-	.	>
2B\ 2d#X 2f#	2dd#X/	8b\L	.	2dd#X\	-nie,	.	]
.	.	8cc\	]	.	.	.	.
.	.	8b\	.	.	.	.	.
.	.	8cc\J	.	.	.	.	.
*	*v	*v	*	*	*	*	*
=44	=44	=44	=44	=44	=44	=44
!	!	!	!	!	!	!LO:DY:a
2.B\ 2.e 2.g	4ee\	mf	4ee\	Ty	.	mf
.	4ff#\	.	4ff#\	nie-	.	.
.	4gg\	.	4gg\	-po-	.	.
=45	=45	=45	=45	=45	=45	=45
*	*^	*	*	*	*	*
2.B\ 2.d#X 2.f#	2.ff#/	4r	.	4ff#\	-wro-	.	.
.	.	8b\L	.	2b\	-tny	.	.
.	.	8cc\	.	.	.	.	.
.	.	8b\	.	.	.	.	.
.	.	8cc\J	.	.	.	.	.
*	*v	*v	*	*	*	*	*
=46	=46	=46	=46	=46	=46	=46
!	!LO:TX:b:i:t=ritenuto	!	!LO:TX:a:i:t=ritenuto	!	!	!
2.F#\ 2.A 2.c 2.e-X	4a/	.	4a/	mój	.	.
.	4.ff#\	.	4.ff#\	szczę-	.	.
.	8ee\	.	8ee\	-ścia	.	.
=47	=47	=47	=47	=47	=47	=47
4DDD/ 4DD	2d;:/ 2f#: 2a: 2ee:	.	2ee;\	śnie!	.	.
2D\ 2F# 2A 2c	.	.	.	.	.	.
.	4dd\	.	4dd\	.	.	.
!	!LO:TX:a:rj:t=[segno]	!	!LO:TX:a:rj:t=[segno]	!	!	!
!!LO:PB:g=original	!	!	!	!	!	!
=48!|:	=48!|:	=48!|:	=48!|:	=48!|:	=48!|:	=48!|:
*>A	*>A	*>A	*>A	*>A	*>A	*>A
!	!	!	!LO:TX:a:i:t=Languido	!	!	!
!	!	!	!LO:TX:a:i:t=ritenuto	!	!	!LO:DY:a
4G\	4g\ 4gg	p	4g/	4. I	-5. Je-	mf
!	!LO:TX:b:i:t=ritenuto	!	!	!	!	!
4.F#\	4.f#\ 4.ff#	.	4.f#/	znów	-szcze	.
8D\	8d/ 8dd	.	8d/	po-	raz	.
=49	=49	=49	=49	=49	=49	=49
*	*^	*	*	*	*	*
!	!LO:TX:b:i:t=moderato	!	!	!LO:TX:a:i:t=moderato	!	!	!
4GGG/ 4GG	2.e\ 2.ee	4r	.	2e/	-wra-	je-	.
4D\ 4G 4B	.	4g/ 4b	.	.	.	.	.
4r	.	4g/ 4b	.	4e/	-ca	-den	.
*	*v	*v	*	*	*	*	*
=50	=50	=50	=50	=50	=50	=50
4DDD/ 4DD	4B/ 4b	.	4B/	wśród	jak	.
4D\ 4G 4B	4.c/ 4.cc	.	4.c/	sen-	daw-	.
4r	.	.	.	.	.	.
.	8B/ 8b	.	8B/	-nych	-niej	.
=51	=51	=51	=51	=51	=51	=51
*	*^	*	*	*	*	*
4AAA/ 4AA	2.e\ 2.ee	4r	.	2.e/	mar	żyć	.
4D\ 4F# 4c	.	4f#/ 4cc	.	.	.	.	.
4D\ 4F# 4c	.	4f#/ 4cc	.	.	.	.	.
*	*v	*v	*	*	*	*	*
=52	=52	=52	=52	=52	=52	=52
4DDD/ 4DD	4g\ 4gg	.	4g/	Mi-	Z cza-	.
4D\ 4F# 4c	4.f#\ 4.ff#	.	4.f#/	-nio-	-ry	.
4r	.	.	.	.	.	.
.	8d/ 8dd	.	8d/	-nych	roz-	.
=53	=53	=53	=53	=53	=53	=53
*	*^	*	*	*	*	*
4AAA/ 4AA	2.e\ 2.ee	4r	.	2e/	wzru-	-ko-	.
4D\ 4F# 4c	.	4f#/ 4cc	.	.	.	.	.
4D\ 4F# 4c	.	4f#/ 4cc	.	4e/	-szeń	-szy	.
*	*v	*v	*	*	*	*	*
=54	=54	=54	=54	=54	=54	=54
!	!	!	!	!	!	!LO:HP:a
4DDD/ 4DD	4d/ 4dd	<	4d/	wio-	zdrój	<
4D\ 4F# 4c	4a\ 4aa	.	4a/	-sen-	szczę-	.
4r	4cc\ 4ccc	[	4cc\	-ny	-ścia	[
!!LO:LB:g=original	!	!	!	!	!	!
=55	=55	=55	=55	=55	=55	=55
*	*^	*	*	*	*	*
4GGG/ 4GG	2ee\ 2eee	4r	.	2ee\	czar,	pić,	.
4D\ 4G 4B	.	4gg/ 4bb	.	.	.	.	.
4D\ 4G 4B	4dd\ 4ddd	4r	.	4dd\	.	.	.
*	*v	*v	*	*	*	*	*
=56	=56	=56	=56	=56	=56	=56
!	!LO:TX:b:i:t=animando	!	!LO:TX:a:i:t=animando	!	!	!LO:DY:a
4BBB/ 4BB	4b\ 4bb	sf	4b\	Znów	Skar-	sf
4G\ 4B 4d	4a\ 4aa	.	4a/	ża-	-bie	.
4G\ 4B 4d#X	4g\ 4gg	.	4g/	-rem	je-	.
=57	=57	=57	=57	=57	=57	=57
*	*^	*	*	*	*	*
4GGG#X/ 4GG#X	2.e\ 2.ee	4r	.	2e/	pło-	-dy-	.
4E\ 4G#X 4d	.	4g#X/ 4b	.	.	.	.	.
4E\ 4G# 4d	.	4g#/ 4b	.	4e/	-nie	-ny,	.
*	*v	*v	*	*	*	*	*
=58	=58	=58	=58	=58	=58	=58
4EEE/ 4EE	4cc\ 4ccc	.	4cc\	Pa-	Cier-	.
4E\ 4G#X 4d	4.b\ 4.bb	.	4.b\	-lą-	-pie-	.
4E\ 4G# 4d	.	.	.	.	.	.
.	8g#X\ 8gg#X	.	8g#X/	-ca	-nia	.
=59	=59	=59	=59	=59	=59	=59
*	*^	*	*	*	*	*
4CC/ 4C	2b\ 2bb	4r	.	2b\	skroń,	skróć:	.
4A\ 4c 4e	.	4cc/ 4ee	.	.	.	.	.
4A\ 4c 4e	4a\ 4aa	4r	.	4a/	.	.	.
*	*v	*v	*	*	*	*	*
=60	=60	=60	=60	=60	=60	=60
!	!	!	!LO:TX:a:i:t=ardente	!	!	!LO:DY:a
4AA\ 4A	4ff#\ 4fff#	f	4ff#\	U-	Za-	f
4c\ 4e 4a	4ff#\ 4fff#	.	4ff#\	-ścis-	-po-	.
4c\ 4e 4a	4ee\ 4eee	.	4ee\	-ków	-mnij	.
!!LO:LB:g=original	!	!	!	!	!	!
=61	=61	=61	=61	=61	=61	=61
*>A1	*>A1	*>A1	*>A1	*>A1	*>A1	*>A1
*	*^	*	*	*	*	*
4DD/ 4D	2dd\ 2ddd	4r	.	4dd\	pra-	.	.
4D\ 4G 4B	.	4gg/ 4bb	.	4dd\	-gnie	.	.
4D\ 4G 4B	8a#X\L 8aa#X	4r	.	8a#X/L	mdle-	.	.
.	8b\J 8bb	.	.	8b/J	.	.	.
=62	=62	=62	=62	=62	=62	=62	=62
4DD/ 4D	2ee\ 2eee	4r	.	2ee\	-ją-	.	.
4D\ 4F# 4c	.	4ff#/ 4ccc	.	.	.	.	.
4D\ 4F# 4c	4cc\ 4ccc	4r	.	4cc\	-ca	.	.
=63	=63	=63	=63	=63	=63	=63	=63
4BBB/ 4BB	2.dd\ 2.ddd	4r	.	2.dd\	dłoń,	.	.
4D\ 4G 4B	.	4gg/ 4bb	.	.	.	.	.
4D\ 4G 4B	.	4gg/ 4bb	.	.	.	.	.
*	*v	*v	*	*	*	*	*
=64	=64	=64	=64	=64	=64	=64
*	*8va	*	*	*	*	*
!	!	!	!LO:TX:a:i:t=dolce	!	!	!
!	!	!	!LO:TX:a:i:t=più lento	!	!	!
4CC/ 4C	4aa\ 4aaa	.	4a\	U-	.	.
4c\ 4e 4a	4gg\ 4ggg	.	4dd\	-ści-	.	.
4c\ 4e 4a	4ee/ 4eee	.	4cc\	-sków	.	.
*	*X8va	*	*	*	*	*
=65	=65	=65	=65	=65	=65	=65
*	*^	*	*	*	*	*
4BB\ 4B	2dd#X\ 2ddd#X	4r	.	2b\	pra-	.	.
4B\ 4d#X 4f#	.	4ff#/ 4bb	.	.	.	.	.
4r	8b\L 8bb	4r	.	4b\	-gnie	.	.
.	8b\J 8bb	.	.	.	.	.	.
*	*v	*v	*	*	*	*	*
=66	=66	=66	=66	=66	=66	=66
!	!	!	!LO:TX:a:i:t=ritenuto	!	!	!
4B\ 4e 4g	4ee\ 4eee	.	4ee\	mdle-	.	.
!	!LO:TX:b:i:t=ritenuto	!	!	!	!	!
4r	4g\ 4gg	.	4g/	-ją-	.	.
4r	4a\ 4aa	.	4a/	-ca	.	.
=67	=67	=67	=67	=67	=67	=67
4DD/ 4D	2c:;/ 2d: 2f#: 2b:	.	2b;\	dłoń	.	.
2D\ 2F# 2A 2c	.	.	.	.	.	.
.	4a/	.	4a/	.	.	.
!!LO:LB:g=original	!	!	!	!	!	!
=68:|!	=68:|!	=68:|!	=68:|!	=68:|!	=68:|!	=68:|!
*>A2	*>A2	*>A2	*>A2	*>A2	*>A2	*>A2
*	*^	*	*	*	*	*
4DD/ 4D	4r	2dd\ 2ddd	.	4dd\	wszyst-	.	.
4D\ 4G 4B	4gg,/ 4bb	.	.	4dd,\	-ko	.	.
!	!	!	!	!LO:TX:a:Bi:t=Lento	!	!	!
4r	4r	8d#X\L 8dd#X	.	8d#X/L	I	.	.
.	.	8e\J 8ee	.	8e/J	.	.	.
=69	=69	=69	=69	=69	=69	=69	=69
*	*	*^	*	*^	*	*	*
4DDD/ 4DD	4r	2b\ 2bb	2ryy	.	2ryy	2b\	do-	.	.
4D\ 4F# 4c	4cc/ 4ff#	.	.	.	.	.	.	.	.
*	*	*	*cue	*	*	*cue	*	*	*
4D\ 4F# 4c	4r	4f#\ 4ff#	4dd/ 4ddd	.	4f#/	4dd/	-mnie	.	.
*	*	*	*Xcue	*	*	*	*	*	*
=70	=70	=70	=70	=70	=70	=70	=70	=70	=70
*	*	*	*^	*	*	*	*	*	*
!	!LO:N:vis=2	!	!	!	!	!	!	!	!	!
*	*	*	*cue	*	*	*	*	*	*	*
4GGG/ 4GG	4ryy	2.g\ 2.gg	2.gg/ 2.ggg	4r	.	2.g/	2.gg/	wróć!	.	.
*	*	*	*	*cue	*	*	*	*	*	*
2D\ 2G 2B	2b/ 2dd	.	.	4bb\ 4ddd	.	.	.	.	.	.
.	.	.	.	4bb\ 4ddd	.	.	.	.	.	.
*	*	*	*Xcue	*Xcue	*	*	*Xcue	*	*	*
*	*v	*v	*v	*v	*	*	*	*	*	*
*	*	*	*v	*v	*	*	*
=71||	=71||	=71||	=71||	=71||	=71||	=71||
*	*8va	*	*	*	*	*
!	!LO:TX:b:i:t=con bravura	!	!LO:TX:t=P:problem:takty 71-74 jako volta z adnotacją "Pour finir"	!	!	!
4BBB/ 4BB	4gg\ 4ggg	.	2.r	.	.	.
4D\ 4G 4B	4.ff#\ 4.fff#	.	.	.	.	.
4D\ 4G 4B	.	.	.	.	.	.
.	8dd/ 8ddd	.	.	.	.	.
=72	=72	=72	=72	=72	=72	=72
4CC/ 4C	2ee/ 2eee	.	2.r	.	.	.
4c\ 4e 4a	.	.	.	.	.	.
4c\ 4e 4a	8ddd\L 8dddd	.	.	.	.	.
.	8ccc\J 8cccc	.	.	.	.	.
=73	=73	=73	=73	=73	=73	=73
4DDD/ 4DD	4bb\ 4bbb	.	2.r	.	.	.
.	8qccc/ 8qcccc	.	.	.	.	.
4D\ 4F# 4c	4.bb\ 4.bbb	.	.	.	.	.
4D\ 4F# 4c	.	.	.	.	.	.
.	8aa\ 8aaa	.	.	.	.	.
=74	=74	=74	=74	=74	=74	=74
!	!LO:TX:b:i:t=Fine.	!	!	!	!	!
4G\ 4B 4d	2.gg\ 2.bb 2.ddd 2.ggg	.	2.r	.	.	.
2GGG/ 2GG	.	.	.	.	.	.
*	*X8va	*	*	*	*	*
*kcancel	*kcancel	*	*kcancel	*	*	*
!!LO:PB:g=original	!	!	!	!	!	!
=75||	=75||	=75||	=75||	=75||	=75||	=75||
*>C	*>C	*>C	*>C	*>C	*>C	*>C
*k[]	*k[]	*	*k[]	*	*	*
*C:	*C:	*	*C:	*	*	*
2.r	4g/	.	2.r	.	.	.
.	4f#X/	.	.	.	.	.
.	4g/	.	.	.	.	.
=76	=76	=76	=76	=76	=76	=76
!LO:N:vis=4.	!	!	!	!	!	!
2.F:\ 2.G:	4.B:/ 4.d: 4.f: 4.b:	.	2.r	.	.	.
.	8a/L	.	.	.	.	.
.	8c#X/	.	.	.	.	.
.	8d/J	.	.	.	.	.
=77	=77	=77	=77	=77	=77	=77
2.D:\ 2.F: 2.G:	2B:/ 2d: 2f: 2a:	.	2.r	.	.	.
.	4a-X/	.	.	.	.	.
=78	=78	=78	=78	=78	=78	=78
2.GGG/ 2.GG	2.G:/ 2.B: 2.d: 2.f: 2.g:	.	2.r	.	.	.
=79!|:	=79!|:	=79!|:	=79!|:	=79!|:	=79!|:	=79!|:
!	!LO:TX:b:i:t=sensibile	!	!LO:TX:a:i:t=sensibile	!	!	!
!	!LO:TX:b:i:t=moderato	!	!LO:TX:a:i:t=moderato	!	!	!
4C/	4c/	.	4c/	6. Czy	7. I	.
4E\	4e/	.	4e/	ty	za	.
4G\	4g/	.	4g/	pa-	la-	.
=80	=80	=80	=80	=80	=80	=80
(>4.A\	(>4.a/	.	(>4.a/	-mię-	-ta-	.
8G\L	8g/L	.	8g/	.	-mi	.
8E\	8e/	.	8e/	-tasz	po-	.
8G\J	8g/J	.	8g/	roz-	-pły-	.
!!LO:LB:g=original	!	!	!	!	!	!
=81	=81	=81	=81	=81	=81	=81
4.A\	4.a/	.	4.a/	-łą-	-ne-	.
8G\L	8g/L	.	8g/	.	.	.
8E\	8e/	.	8e/L	-ki	-ły	.
8G\J)	8g/J	.	8g/J	.	.	.
=82	=82	=82	=82	=82	=82	=82
4C/	2.a/)	.	4a/	chwi-	la-	.
4E\ 4G	.	.	2a/)	-le,	-ta,	.
4E\ 4G	.	.	.	.	.	.
=83	=83	=83	=83	=83	=83	=83
4GG/	4g/	.	4g/	O-	Dziś	.
4E\ 4G	4e/	.	4e/	-stat-	dal	.
4E\ 4G	4g/	.	4g/	-nie	nie-	.
=84	=84	=84	=84	=84	=84	=84
4C/	(2.cc\	.	(2cc\	trwoż-	-zna-	.
4E\ 4G	.	.	.	.	.	.
4E\ 4G	.	.	4cc\	-ce	-na	.
=85	=85	=85	=85	=85	=85	=85
4E\	4ee\	.	4ee\	u-	roz-	.
4G\ 4c	4.cc\	.	4.cc\	-ści-	-dzie-	.
4G#X\ 4c	.	.	.	.	.	.
.	8g#X/	.	8g#X/	-ski	-la	.
!!LO:LB:g=original	!	!	!	!	!	!
=86	=86	=86	=86	=86	=86	=86
4F\	2.a/)	.	2.a/)	rąk.	nas.	.
4A\ 4d	.	.	.	.	.	.
4A\ 4d	.	.	.	.	.	.
=87	=87	=87	=87	=87	=87	=87
4D\	4d/	.	4d/	W dal	Po-	.
4F\	4f/	.	4f/	u-	-śród	.
4A\	4a/	.	4a/	-le-	u-	.
=88	=88	=88	=88	=88	=88	=88
(>4.B\	(4.b\	.	(4.b\	-cia-	-łu-	.
8A\L	8a/L	.	8a/	.	.	.
8F\	8f/	.	8f/	-ły	-dnych	.
8A\J	8a/J	.	8a/	ros-	po-	.
=89	=89	=89	=89	=89	=89	=89
4.c\	4.cc\	.	4.cc\	-ko-	-wa-	.
8B\L	8b/L	.	8b/	.	.	.
8F\	8f/	.	8f/	-szy	-bów	.
8A\J)	8a/J	.	8a/	mo-	.	.
=90	=90	=90	=90	=90	=90	=90
4D\	2.b\)	.	4b\	-ty-	świa-	.
4F\ 4G 4B	.	.	2b\)	-le	-ta	.
4F\ 4G 4B	.	.	.	.	.	.
!!LO:LB:g=original	!	!	!	!	!	!
=91	=91	=91	=91	=91	=91	=91
4GGG/ 4GG	4B/ 4b	.	4b\	Od	Zwol-	.
4GG/ 4BB 4D 4F	4A#X/ 4a#X	.	4a#X/	ja-	-na	.
4GG/ 4BB 4D 4F	4B/ 4b	.	4b\	-snych	u-	.
=92	=92	=92	=92	=92	=92	=92
4GGG/ 4GG	(<4.e/ 4.ee	.	(4.ee\	szczę-	-ko-	.
4GG/ 4BB 4D 4F	.	.	.	.	.	.
.	8d/L 8dd	.	8dd\	-ścia	-ił	.
4GG/ 4BB 4D 4F	8G#X/ 8g#X	.	8g#X/	pro-	bó-	.
.	8A/J 8a	.	8a/	-mie-	-le	.
=93	=93	=93	=93	=93	=93	=93
4GGG/ 4GG	4.e/ 4.ee	.	4.ee\	-ni-	ser-	.
4GG/ 4BB 4D 4F	.	.	.	.	.	.
.	8d/L 8dd	.	8dd\	.	.	.
4GG/ 4BB 4D 4F	8c#X/ 8cc#X	.	8cc#X\L	-stych	-ca	.
.	8d/J 8dd	.	8dd\J	.	.	.
=94	=94	=94	=94	=94	=94	=94
4E\	2.g\) 2.gg	.	2.gg\)	łąk.	czas.	.
4G\ 4c	.	.	.	.	.	.
4G\ 4c	.	.	.	.	.	.
=95	=95	=95	=95	=95	=95	=95
4C/	4c/	.	4c/	W ser-	Lecz	.
4E\	4e/	.	4e/	-cu	cza-	.
4G\	4g/	.	4g/	nie-	-sem	.
!!LO:PB:g=original	!	!	!	!	!	!
=96	=96	=96	=96	=96	=96	=96
(>4.A\	(4.a/	.	(>4.a/	-zna-	na-	.
8G\L	8g/L	.	8g/	.	-gle,	.
8E\	8e/	.	8e/	-na	o	.
8G\J	8g/J	.	8g/	tę-	wie-	.
=97	=97	=97	=97	=97	=97	=97
4.A\	4.a/	.	4.a/	-skno-	-czor-	.
8G\L	8g/L	.	8g/	.	.	.
8E\	8e/	.	8e/L	-ta	-nym	.
8G\J)	8g/J	.	8g/J	po-	.	.
=98	=98	=98	=98	=98	=98	=98
4C/	2.a/)	.	4a/	-wsta-	mro-	.
4E\ 4G	.	.	2a/)	-je	-ku,	.
4E\ 4G	.	.	.	.	.	.
=99	=99	=99	=99	=99	=99	=99
4E\	4g/	.	4g/	Za	W ser-	.
4G\ 4c	4e/	.	4e/	tem,	-cu	.
4G\ 4c	4g/	.	4g/	co	wy-	.
=100	=100	=100	=100	=100	=100	=100
4EE/ 4E	4.cc\ 4.ccc	.	4.cc\	ni-	-bu-	.
4E\ 4G#X 4d	.	.	.	.	.	.
.	8b\L 8bb	.	8b\	-gdy	-cha	.
4E\ 4G# 4d	8d#X\ 8dd#X	.	8d#X/	nie-	nie-	.
.	8e\J 8ee	.	8e/	-po-	-stłu-	.
!!LO:LB:g=original	!	!	!	!	!	!
=101	=101	=101	=101	=101	=101	=101
!	!LO:TX:b:i:t=rit.	!	!LO:TX:a:i:t=rit.	!	!	!
4GG#X/ 4G#X	2ee\ 2eee	.	2ee\	-wró-	-mio-	.
4E\ 4G# 4d	.	.	.	.	.	.
4E\ 4G# 4d	4b\ 4bb	.	4b\	-ci	-ny	.
=102	=102	=102	=102	=102	=102	=102
4AA\ 4A	2.cc\ 2.ccc	.	2.cc\	już,	żal,	.
4A\ 4c 4e	.	.	.	.	.	.
4A\ 4c 4e	.	.	.	.	.	.
=103	=103	=103	=103	=103	=103	=103
2.F\ 2.A 2.d	4a\ 4aa	.	4a/	Co	I	.
.	4g#X\ 4gg#X	.	4g#X/	u-	łza	.
.	4a\ 4aa	.	4a/	-le-	w przy-	.
=104	=104	=104	=104	=104	=104	=104
4F\	(4.dd\ 4.ddd	.	(4.dd\	-cia-	-mknię-	.
4A\ 4d	.	.	.	.	.	.
.	8a\L 8aa	.	8a/	.	.	.
4A\ 4d	8g#X\ 8gg#X	.	8g#X/L	-ło	-tym	.
.	8a\J 8aa	.	8a/J	.	za	.
=105	=105	=105	=105	=105	=105	=105
*	*8va	*	*	*	*	*
4F\	4.ee/ 4.eee	.	4.ee\	hen,	bły-	.
4A\ 4d	.	.	.	.	.	.
.	8dd/L 8ddd	.	8dd\	w da-	.	.
4A\ 4d	8cc#X/ 8ccc#X	.	8cc#X\	-le-	-śnie	.
.	8dd/J 8ddd	.	8dd\	-kie	.	.
!!LO:LB:g=original	!	!	!	!	!	!
=106	=106	=106	=106	=106	=106	=106
4GG/ 4G	2.gg\) 2.ggg	.	4gg\	kra-	o-	.
4G\ 4c 4e	.	.	2gg\)	-je,	-ku,	.
4G\ 4c 4e	.	.	.	.	.	.
*	*X8va	*	*	*	*	*
=107	=107	=107	=107	=107	=107	=107
!	!LO:TX:b:i:t=più lento	!	!LO:TX:a:i:t=più lento	!	!	!
2.D\ 2.F 2.A 2.c	4a\ 4aa	.	4a/	Na	Ser-	.
.	4b\ 4bb	.	4b\	sza-	-ce	.
.	4cc\ 4ccc	.	4cc\	-rych	za	.
=108	=108	=108	=108	=108	=108	=108
4GGG/ 4GG	(4.dd\ 4.ddd	.	(4.dd\	fa-	to-	.
4G\ 4B 4d 4f	.	.	.	.	.	.
.	8a\L 8aa	.	8a/	-lach	-bą	.
4G\ 4B 4d 4f	8b\ 8bb	.	8b/	za-	bie-	.
.	8cc\J 8ccc	.	8cc\	-po-	-gnie	.
=109	=109	=109	=109	=109	=109	=109
4GGG/ 4GG	2ee\ 2eee	.	2ee\	-mnie-	w ciem-	.
4G\ 4B 4d 4f	.	.	.	.	.	.
4G\ 4B 4d 4f	4b\) 4bb	.	4b\)	-nia	-ną	.
=110	=110	=110	=110	=110	=110	=110
*>C1	*>C1	*>C1	*>C1	*>C1	*>C1	*>C1
*^	*	*	*	*	*	*
4c/	2.C\ 2.E 2.G 2.c	2.cc\ 2.ee 2.gg 2.ccc	.	2.cc\	mórz.	.	.
4G/	.	.	.	.	.	.	.
4E/	.	.	.	.	.	.	.
=111:|!	=111:|!	=111:|!	=111:|!	=111:|!	=111:|!	=111:|!	=111:|!
*>C2	*>C2	*>C2	*>C2	*>C2	*>C2	*>C2	*>C2
4c/	[2.C\ [2.E [>2.G [>2.c	[2.cc\ [2.ee [2.gg [2.ccc	.	2.cc\	dal.	.	.
4G/	.	.	.	.	.	.	.
4E/	.	.	.	.	.	.	.
*v	*v	*	*	*	*	*	*
=112	=112	=112	=112	=112	=112	=112
*k[f#]	*k[f#]	*	*k[f#]	*	*	*
*G:	*G:	*	*G:	*	*	*
*^	*	*	*	*	*	*
8C/	8C\] 8E] 8G] 8c]	8cc\] 8ee] 8gg] 8ccc]	.	8r	.	.	.
*clefG2	*	*	*	*	*	*	*
=||	=||	=||	=||	=||	=||	=||	=||
*>A	*>A	*>A	*>A	*>A	*>A	*>A	*>A
*v	*v	*	*	*	*	*	*
*	*8va	*	*	*	*	*
*^	*	*	*	*	*	*
8gg\	8ryy	8ggg\	p	8r	.	.	.
!	!	!LO:TX:a:i:t=vivace	!	!	!	!	!
4ff#\	4ryy	4fff#\	.	2r	.	.	.
4dd\	4ryy	4ddd\	.	.	.	.	.
*v	*v	*	*	*	*	*	*
=113	=113	=113	=113	=113	=113	=113
2ee\	2eee\	.	2.r	.	.	.
4b\	4bb\	.	.	.	.	.
=114	=114	=114	=114	=114	=114	=114
8qqa/L	8qqaa/L	.	.	.	.	.
8qqb/J	8qqbb/J	.	.	.	.	.
4.a/	4.aa/	.	2.r	.	.	.
8b/L	8bb/L	.	.	.	.	.
8a/	8aa/	.	.	.	.	.
8e/J	8ee/J	.	.	.	.	.
=115	=115	=115	=115	=115	=115	=115
2.a/	2.aa/	.	2.r	.	.	.
*	*X8va	*	*	*	*	*
=116	=116	=116	=116	=116	=116	=116
4g/	4gg\	.	2.r	.	.	.
4d/	4dd\	.	.	.	.	.
4e/	4ee\	.	.	.	.	.
*clefF4	*	*	*	*	*	*
=117	=117	=117	=117	=117	=117	=117
4B\	4b\	.	2.r	.	.	.
4d\	4dd\	.	.	.	.	.
8qd#X/	8qdd#X/	.	.	.	.	.
4e\	4ee\	.	.	.	.	.
=118	=118	=118	=118	=118	=118	=118
!	!LO:TX:b:i:t=rallentando	!	!	!	!	!
8qe/	8qee/	.	.	.	.	.
4B\	4b\	.	2.r	.	.	.
8A\L	8a/L	.	.	.	.	.
8E-X\J	8e-X/J	.	.	.	.	.
8A\L	8a/L	.	.	.	.	.
8E-\J	8e-/J	.	.	.	.	.
=119	=119	=119	=119	=119	=119	=119
!LO:TX:b:Bi:t=D. S. [segno] al Fine.	!	!	!	!	!	!
4DD/ 4D	2.c;:/ 2.d: 2.f#: 2.a:	.	2.r	.	.	.
2D\ 2F# 2A 2c	.	.	.	.	.	.
==	==	==	==	==	==	==
*-	*-	*-	*-	*-	*-	*-
!!!system-decoration: s1{(s2,s3)}
!!!RDF**kern: > = above
!!!RDF**kern: < = below
!!!ENC: Anastazja Marusiak
!!!END: 2023-08-24
!!!ENC: Jan Barakat
!!!END: 2023-09-21
!!!YEM: Copyright © 2022 by [Copyright Holder]
